X:1
T:Title
%%score 1 { 2 | 3 }
L:1/8
Q:1/4=100
M:4/4
K:F
V:1 treble nm="Grand Piano, Soprano"
V:2 treble nm="Choir Pad, Jesus Promised Me a Home"
V:3 bass 
V:1
 F[FG] [FA]2 [FA][FA] [EB]2 | [EB][EB] [Fc]2 [Fc]2 F2 | F[FG][FA][FA] [FA]>[FA] [FG]2 | %3
w: By~John~Robson~Sweney * * * * *|||
 [DF]2 [EG]6 | F[FG] [FA]2 [FA][FA] [EB]2 | [EB][EB] [Fc]2 [Fc]2 F2 | %6
w: |||
 F[FG][FA][FA] [FA]>[FA] [EG]2 | [EG][EG] F6 | F[FG] [FA]<[FA] [FA]>[FA] [FA]2 | [EA]>[EG] F6 | %10
w: ||||
 [FA][GB] [Ac]<[Ac] [Ac]>[Ac] [Ac]2 | [Fc]>[FA] [EG]4 [Ec]2- | [Ec][GB][FA][FA]- [FA]2 [EB][EB]- | %13
w: |||
 [EB]2 [Fc]2 [Fc]2 [Fd]2 | F[FG] [FA]<[FA] [FA]>[FA] [EG]2 | [FA]>[EG] [CF]6- | [CF]2 z2 z4 |] %17
w: ||||
V:2
 A,B, C2 CC C2 | CC C2 C2[K:bass] A,2 | A,B,CC[K:treble] C>C =B,2 | =B,2 C4 C[K:bass]_B, | %4
 A,B, C2 C[K:treble]C C2 | CC C2 C2 A,2 | CDCC C>C C2 | B,B, A,6 | A,B,[K:treble] C<C C>C C2 | %9
 C>B, A,6 | CC F<F F>F F2 | C>C C4 G,2- | G,CCC- C2 CC- | C2 C2 C2 B,2 | CD C<C C>C[K:bass] B,2 | %15
 C>B, A,6- | A,2 z2 z4 |] %17
V:3
 F,F, F,2 F,F, G,2 | G,G, A,2 A,2 F,2 | F,F,F,F, F,>F, D,2 | D,2 C,6 | F,F, F,2 F,F, G,2 | %5
 G,G, A,2 A,2 F,2 | A,,B,,C,C, C,>C, C,2 | C,C, F,6 | F,F, F,<F, F,>F, F,2 | C,>C, F,6 | %10
 F,F, F,<F, F,>F, F,2 | A,>F, C,4 C,2- | C,C,F,F,- F,2 G,G,- | G,2 A,2 A,2 z2 | %14
 A,,B,, C,<C, C,>C, C,2 | C,>C, F,6- | F,2 z2 z4 |] %17

